!!!OTL: Der Nachtjaeger Es blast ein Jager in seinem Horn,
!!!ARE: Europa, Mitteleuropa, Lothringen, Weiler
!!!SCT: D0015A
!!!YEM: Copyright 1995, estate of Helmut Schaffrath.
**kern
*ICvox
*Ivox
*M2/4
*k[b-e-]
*g:
{8fn
=1
8g
8b-
8a
8g
=2
4fn
8fn
8dd
=3
8dd
8cc
4dd
=4
4.a}
{8a
=5
8b-
8b-
8cc
16cc
16cc
=6
8.dd
16cc
8b-}
{8cc
=7
8dd
8cc
8b-
8a
=8
8g
8b-
4a
=9
4g
8r}
==
!!!AGN: Ballade, Zauber
!! In der ersten Zeile Tonlaenge korrigiert und "Taktstrich" zugefuegt
!!    Variante zu Lied D0015 ??
!!!ONB: ESAC (Essen Associative Code) Database: DVA
!!!AMT: simple duple
!!!AIN: vox
!!!EED: Helmut Schaffrath
!!!EEV: 1.0
*-
